art/standard/gamepad/ouya/rightshoulder.svg

<svg xmlns="http://www.w3.org/2000/svg" version="1.1" xmlns:xlink="http://www.w3.org/1999/xlink" preserveAspectRatio="none" x="0px" y="0px" width="100px" height="100px" viewBox="0 0 100 100">
<defs/>

<g id="OUYA">
<g>
<g>
<g>
<path fill="#1E1E1E" stroke="none" d="
M 83.8 62.55
Q 93.9 57.75 93.35 50.8 91.35 38.45 80.3 30.2 72.75 26.4 55.9 25.95 33.75 27.45 12.4 33.8 8.45 36.5 7.6 41.55 5.7 52.15 7.6 64.2 10.2 74.05 19.9 74.1 58.2470703125 71.0236328125 83.8 62.55
M 87.45 51.6
Q 87.9373046875 54.4177734375 82 57.45 55.355078125 64.380078125 24.95 67.55 20.7263671875 67.4080078125 19.75 62.3
L 19.75 48.25
Q 20.77421875 44.5763671875 24.15 42.35 51.7353515625 36.3986328125 75.45 34.8 80.1578125 36.6099609375 83.3 41.55 86.366796875 46.205859375 87.45 51.6 Z"/>

<path fill="#3B3B3B" stroke="none" d="
M 82 57.45
Q 87.9373046875 54.4177734375 87.45 51.6 86.366796875 46.205859375 83.3 41.55 80.1578125 36.6099609375 75.45 34.8 51.7353515625 36.3986328125 24.15 42.35 20.77421875 44.5763671875 19.75 48.25
L 19.75 62.3
Q 20.7263671875 67.4080078125 24.95 67.55 55.355078125 64.380078125 82 57.45
M 46.05 44.5
L 48.85 44.05 48.85 58.2 45.95 58.65 45.95 47.85 43.1 50.8 41.4 49.1 46.05 44.5
M 36.9 46.8
Q 37.65 47.15 38.1 47.9 38.5 48.7 38.5 49.95 38.5 51.45 37.7 52.6 36.95 53.8 35.45 54.25
L 39.05 59.7 35.3 60.3 32.35 55.1 30.8 55.35 30.8 61 27.7 61.45 27.7 47.3 33.15 46.45
Q 34.25 46.3 35.2 46.35 36.2 46.4 36.9 46.8
M 33.7 49.1
Q 33.25 49.1 32.85 49.15
L 30.8 49.5 30.8 52.7 32.65 52.4
Q 33.05 52.35 33.55 52.2 34 52.15 34.4 51.95 34.75 51.7 35 51.35 35.25 51 35.25 50.4 35.25 49.9 35.05 49.6 34.8 49.3 34.5 49.15 34.15 49.05 33.7 49.1 Z"/>

<path fill="#8C8C8C" stroke="none" d="
M 38.1 47.9
Q 37.65 47.15 36.9 46.8 36.2 46.4 35.2 46.35 34.25 46.3 33.15 46.45
L 27.7 47.3 27.7 61.45 30.8 61 30.8 55.35 32.35 55.1 35.3 60.3 39.05 59.7 35.45 54.25
Q 36.95 53.8 37.7 52.6 38.5 51.45 38.5 49.95 38.5 48.7 38.1 47.9
M 32.85 49.15
Q 33.25 49.1 33.7 49.1 34.15 49.05 34.5 49.15 34.8 49.3 35.05 49.6 35.25 49.9 35.25 50.4 35.25 51 35 51.35 34.75 51.7 34.4 51.95 34 52.15 33.55 52.2 33.05 52.35 32.65 52.4
L 30.8 52.7 30.8 49.5 32.85 49.15
M 48.85 44.05
L 46.05 44.5 41.4 49.1 43.1 50.8 45.95 47.85 45.95 58.65 48.85 58.2 48.85 44.05 Z"/>
</g>
</g>

<g>
<path stroke="#000000" stroke-width="5" stroke-linejoin="round" stroke-linecap="round" fill="none" d="
M 93.35 50.8
Q 93.9 57.75 83.8 62.55 58.2470703125 71.0236328125 19.9 74.1 10.2 74.05 7.6 64.2 5.7 52.15 7.6 41.55 8.45 36.5 12.4 33.8 33.75 27.45 55.9 25.95 72.75 26.4 80.3 30.2 91.35 38.45 93.35 50.8 Z"/>
</g>

<g>
<path stroke="#4F4F4F" stroke-width="4" stroke-linejoin="round" stroke-linecap="round" fill="none" d="
M 82 57.45
Q 87.9373046875 54.4177734375 87.45 51.6 86.366796875 46.205859375 83.3 41.55 80.1578125 36.6099609375 75.45 34.8 51.7353515625 36.3986328125 24.15 42.35 20.77421875 44.5763671875 19.75 48.25
L 19.75 62.3
Q 20.7263671875 67.4080078125 24.95 67.55 55.355078125 64.380078125 82 57.45 Z"/>
</g>
</g>
</g>
</svg>

<svg width="100px" height="100px" preserveAspectRatio="none" version="1.1" viewBox="0 0 100 100" xmlns="http://www.w3.org/2000/svg">
 <g id="OUYA">
  <g>
   <path d="m83.8 62.55c6.7333-3.2 9.9167-7.1167 9.55-11.75-1.3333-8.2333-5.6833-15.1-13.05-20.6-5.0333-2.5333-13.167-3.95-24.4-4.25-14.767 1-29.267 3.6167-43.5 7.85-2.6333 1.8-4.2333 4.3833-4.8 7.75-1.2667 7.0667-1.2667 14.617 0 22.65 1.7333 6.5667 5.8333 9.8667 12.3 9.9 25.565-2.0509 46.865-5.9009 63.9-11.55" fill="#1e1e1e"/>
   <path d="m82 57.45c3.9582-2.0215 5.7749-3.9715 5.45-5.85-0.72214-3.5961-2.1055-6.9461-4.15-10.05-2.0948-3.2934-4.7115-5.5434-7.85-6.75-15.81 1.0658-32.91 3.5824-51.3 7.55-2.2505 1.4842-3.7172 3.4509-4.4 5.9v14.05c0.65091 3.4053 2.3842 5.1553 5.2 5.25 20.27-2.1133 39.287-5.4799 57.05-10.1" fill="#3b3b3b"/>
   <path d="m38.1 47.9q-0.45-0.75-1.2-1.1-0.7-0.4-1.7-0.45-0.95-0.05-2.05 0.1l-5.45 0.85v14.15l3.1-0.45v-5.65l1.55-0.25 2.95 5.2 3.75-0.6-3.6-5.45q1.5-0.45 2.25-1.65 0.8-1.15 0.8-2.65 0-1.25-0.4-2.05m-5.25 1.25q0.4-0.05 0.85-0.05 0.45-0.05 0.8 0.05 0.3 0.15 0.55 0.45 0.2 0.3 0.2 0.8 0 0.6-0.25 0.95t-0.6 0.6q-0.4 0.2-0.85 0.25-0.5 0.15-0.9 0.2l-1.85 0.3v-3.2l2.05-0.35m16-5.1-2.8 0.45-4.65 4.6 1.7 1.7 2.85-2.95v10.8l2.9-0.45v-14.15z" fill="#8C8C8C"/>
  </g>
  <path d="m93.35 50.8q0.55 6.95-9.55 11.75-25.553 8.4736-63.9 11.55-9.7-0.05-12.3-9.9-1.9-12.05 0-22.65 0.85-5.05 4.8-7.75 21.35-6.35 43.5-7.85 16.85 0.45 24.4 4.25 11.05 8.25 13.05 20.6z" fill="none" stroke="#000" stroke-linecap="round" stroke-linejoin="round" stroke-width="5"/>
  <path d="m82 57.45q5.9373-3.0322 5.45-5.85-1.0832-5.3941-4.15-10.05-3.1422-4.94-7.85-6.75-23.715 1.5986-51.3 7.55-3.3758 2.2264-4.4 5.9v14.05q0.97637 5.108 5.2 5.25 30.405-3.1699 57.05-10.1z" fill="none" stroke="#4F4F4F" stroke-linecap="round" stroke-linejoin="round" stroke-width="4"/>
 </g>
</svg>
